X:1
T:It's the Syme the 'Ole World Over
M:3/4
L:1/8
K:F
 CE| A3 EG F| E D3 DD| G3 FE F| G4 CE| A3 EG F| E2 D2 d^c| =c3 BD E|\
 F4||

